%
(Header)
(Generated by gcodetools from Inkscape.)
(Header end.)

G21 (All units in mm)

(Start cutting path id: path2985)
(Change tool to Default tool)

G00 X117.900286 Y161.265364

G01 X103.002012 Y199.378481 F[25*60]
G01 X88.380918 Y161.265364 
G01 X117.900286 Y161.265364 

(End cutting path id: path2985)


(Start cutting path id: path2985)
(Change tool to Default tool)

G00 X157.536619 Y121.073349

G01 X116.583693 Y121.073349 
G01 X116.583693 Y125.993407 
G01 X121.946127 Y126.579793 
G01 X125.522657 Y127.379339 
G01 X128.559415 Y128.844938 
G01 X129.125960 Y129.943311 
G01 X129.097716 Y130.564815 
G01 X128.987372 Y131.467835 
G01 X128.803585 Y132.356360 
G01 X128.571606 Y133.061658 
G01 X120.394880 Y155.097970 
G01 X85.955617 Y155.097970 
G01 X84.064159 Y150.228965 
G01 X82.768080 Y146.643787 
G01 X81.596591 Y143.038218 
G01 X80.619958 Y139.991316 
G01 X79.782515 Y136.996131 
G01 X79.372661 Y135.140555 
G01 X79.092545 Y133.263432 
G01 X79.026188 Y132.091506 
G01 X79.921129 Y129.955058 
G01 X83.391730 Y127.795118 
G01 X87.826088 Y126.622410 
G01 X93.231519 Y125.993407 
G01 X93.231519 Y121.073349 
G01 X56.228368 Y121.073349 
G01 X56.228368 Y125.993407 
G01 X58.017603 Y126.213162 
G01 X60.732496 Y126.755668 
G01 X63.359678 Y127.621775 
G01 X65.167330 Y128.557379 
G01 X67.776644 Y130.600044 
G01 X69.463576 Y132.437988 
G01 X70.819331 Y134.610848 
G01 X72.443232 Y138.120307 
G01 X79.798297 Y156.645844 
G01 X88.796684 Y179.698253 
G01 X97.740316 Y202.772058 
G01 X104.734371 Y220.791125 
G01 X110.277914 Y220.791125 
G01 X143.054111 Y135.972114 
G01 X144.254561 Y133.361461 
G01 X145.410117 Y131.606429 
G01 X146.853455 Y130.080043 
G01 X149.082716 Y128.349491 
G01 X150.737574 Y127.521989 
G01 X153.240373 Y126.686373 
G01 X155.818557 Y126.165693 
G01 X157.536619 Y125.993407 
G01 X157.536619 Y121.073349 

(End cutting path id: path2985)


(Footer)
G00 X0.0000 Y0.0000
M2
(Using default footer. To add your own footer create file "footer" in the output dir.)
(end)
%
